!! 00000] TT[WS
!!!OTL: Daduan lianluo
!!!ARE: Asia, China, Shanxi Zuoquan
!! Ethnic Group: Han
!! WII, 221
!!!SCT: J0729
!!!YEM: Copyright 1995, estate of Helmut Schaffrath.
**kern
*ICvox
*Ivox
*M2/4
*k[f#]
*G:
{4dd
4dd
=1
8ee
8dd
8b
8a
=2
8g
8f#
8e
8g
=3
2a}
=4
{4dd
4dd
=5
8ee
8dd
8b
8a
=6
8g
8f#
8e
8g
=7
2a}
=8
{8a
8b
4dd
=9
8ee
8dd
8b
8a
=10
4g
4dd
=11
4g
8f#
8e}
=12
{8d
8d
8d
8e
=13
4f#
8a
8e
=14
2d}
=15
{8a
8b
8a
8g
=16
4f#
4e
=17
8d
8d
8d
8e
=18
4f#
8a
8e
=19
2d}
==
!!!AGN: Xiaodiao. XÅshi, Xinminge
!!!ONB: ESAC (Essen Associative Code) Database: CHINA
!!!AMT: simple duple
!!!AIN: vox
!!!EED: Helmut Schaffrath
!!!EEV: 1.0
*-
